X: 1
T: Drmes iz Zdencine
O: Croatia
R: drmesh
M: C|
L: 1/8
Z: John Chambers <jc@eddie.mit.edu> http://eddie.mit.edu/~jc/music/
K: A
|: c | "E"dcBA "A"c3A | "E"ABcd "A"e3c | "E"dcBA "A"c3A | "E"BABc "A"A3 :|
|: c | "D"dcdf "A"e3c | "D"dcdf "A"e3c | "D"dcdf "A"e3c | "E"dcB2 "A"A3 :|
K: D
|: f | "A"gfed "D"f3d | "A"defg "D"a3f | "A"gfed "D"f3d | "A"edef "D"d3 :|
|: f | "G"gfgb "D"a3f | "G"gfgb "D"a3f | "G"gfgb "D"a3f | "A"gfe2 "D"d3 :|
